icons/view-360.svg

<svg width="24" height="24" viewBox="0 0 24 24" fill="none" xmlns="http://www.w3.org/2000/svg">
<path d="M12 21C13.1819 21 14.3522 20.7672 15.4442 20.3149C16.5361 19.8626 17.5282 19.1997 18.364 18.364C19.1997 17.5282 19.8626 16.5361 20.3149 15.4442C20.7672 14.3522 21 13.1819 21 12C21 10.8181 20.7672 9.64778 20.3149 8.55585C19.8626 7.46392 19.1997 6.47177 18.364 5.63604C17.5282 4.80031 16.5361 4.13738 15.4442 3.68508C14.3522 3.23279 13.1819 3 12 3C9.61305 3 7.32387 3.94821 5.63604 5.63604C3.94821 7.32387 3 9.61305 3 12C3 14.3869 3.94821 16.6761 5.63604 18.364C7.32387 20.0518 9.61305 21 12 21V21Z" stroke="white" stroke-width="2" stroke-linecap="round" stroke-linejoin="round"/>
<path d="M12 21C14.21 21 16 16.97 16 12C16 7.03 14.21 3 12 3C9.79 3 8 7.03 8 12C8 16.97 9.79 21 12 21Z" stroke="white" stroke-width="2" stroke-linecap="round" stroke-linejoin="round"/>
<path d="M3 12C3 14.21 7.03 16 12 16C16.97 16 21 14.21 21 12C21 9.79 16.97 8 12 8C7.03 8 3 9.79 3 12Z" stroke="white" stroke-width="2" stroke-linecap="round" stroke-linejoin="round"/>
</svg>

<svg
  width="24"
  height="24"
  viewBox="0 0 24 24"
  xmlns="http://www.w3.org/2000/svg"
  fill="none"
  stroke="currentColor"
  stroke-width="2"
  stroke-linecap="round"
  stroke-linejoin="round"
>
  <path d="M12 21a9 9 0 1 0 0-18 9 9 0 0 0 0 18z" />
  <path d="M12 21c2.21 0 4-4.03 4-9s-1.79-9-4-9-4 4.03-4 9 1.79 9 4 9z" />
  <path d="M3 12c0 2.21 4.03 4 9 4s9-1.79 9-4-4.03-4-9-4-9 1.79-9 4z" />
</svg>
